X:1
T:O Lord, my rock, to thee I cry
T:O Lord, my rock, to thee I cry (Joseph Stephenson)
C:Joseph Stephenson
Z:p42, Church Harmony
Z:Sacred to Devotion, 4th ed.
Z:London: [c1763-1771]
%%score [ 1 2 3 4 ]
L:1/8
M:3/2
K:Cmin
V:1 treble nm="SOPRANO" snm="S."
V:2 treble nm="ALTO" snm="A."
V:3 treble-8 transpose=-12 nm="TENOR" snm="T."
V:4 bass nm="BASS" snm="B."
V:1
 e4 | (c4 d2 e2) f4 | (g4 f2 e2) d4 | c8 A4 | G8 G4 | G8 c4 | A8 G4 | G8 z4 | z12 | z4 z4 d4 | %10
w: Let|me _ _ es-|cape _ _ the|sin- ners’|doom, Who|make a|trade of|ill;||And|
w: O|Lord, _ _ my|rock, _ _ to|thee I|cry, In|sighs con-|sume my|breath;||O|
w: Re-|gard _ _ my|sup- * * pli-|ca- tion,|Lord, The|cries that|I re-|peat,||With|
 (e2 d2 e2) c2 d4 | c4 (c3 d) =B4 | (c3 d c3 B A3 B | G8) z4 ||[M:4/4]"^Slow" e4 (c2 de) | %15
w: ev- * * er speak|the per- * son|fair, _ _ _ _ _|_|Whose blood _ _|
w: an- * * swer, or|I shall _ be-|come _ _ _ _ _|_|Like those _ _|
w: weep- * * ing eyes|and lif- * ted|hands _ _ _ _ _|_|Be- fore _ _|
 f4 (g2 fe) | d4 c4- | c4 |] %18
w: they mean _ _|to spill.|_|
w: that sleep _ _|in death.|_|
w: thy mer- * *|cy seat.|_|
V:2
 G4 | G8 B4 | B8 A4 | G8 (F2 E2) | D8 D4 | (E2 D2 E2 F2) G4 | (A2 G2 F2 E2) D4 | C8 z4 | z12 | %9
w: Let|me es-|cape the|sin- ners’ _|doom, Who|make _ _ _ a|trade _ _ _ of|ill;||
w: O|Lord, my|rock, to|thee I _|cry, In|sighs _ _ _ con-|sume _ _ _ my|breath;||
w: Re-|gard my|sup- pli-|ca- tion, _|Lord, The|cries _ _ _ that|I _ _ _ re-|peat,||
 z12 | z4 z4 G4 | (A2 G2 A2) F2 G4 | E4 F4 (F2 E2) | D8 z4 ||[M:4/4] G4 G4 | F4 (E2 DC) | G4 G4- | %17
w: |And|ev- * * er speak|the per- son _|fair,|Whose blood|they mean _ _|to spill.|
w: |O|an- * * swer, or|I shall be- *|come|Like those|that sleep _ _|in death.|
w: |With|weep- * * ing eyes|and lif- ted _|hands|Be- fore|thy mer- * *|cy seat.|
 G4 |] %18
w: _|
w: _|
w: _|
V:3
 c4 | (e4 d2 c2) d4 | e8 f4 | (g4 f2 e2) d4 | =B8 G4 | (c2 B2 c2 d2) e4 | (f2 e2 d2 c2) =B4 | %7
w: Let|me _ _ es-|cape the|sin- * * ners’|doom, Who|make _ _ _ a|trade _ _ _ of|
w: O|Lord, _ _ my|rock, to|thee _ _ I|cry, In|sighs _ _ _ con-|sume _ _ _ my|
w: Re-|gard _ _ my|sup- pli-|ca- * * tion,|Lord, The|cries _ _ _ that|I _ _ _ re-|
 c8 d4 | (e2 d2 e2) c2 d4 | c4 (c3 d) =B4 | c8 B4 | (c2 B2 c2) A2 G4 | A4 c4 (d2 c2) | =B8 z4 || %14
w: ill; And|ev- * * er speak|the per- * son|fair, and|ev- * * er speak|the per- son _|fair,|
w: breath; O|an- * * swer, or|I shall _ be-|come, O|an- * * swer, or|I shall be- *|come|
w: peat, With|weep- * * ing eyes|and lif- * ted|hands, with|weep- * * ing eyes|and lif- ted _|hands|
[M:4/4] c4 e4 | (d2 c2) G4 | =B4 c4- | c4 |] %18
w: Whose blood|they _ mean|to spill.|_|
w: Like those|that _ sleep|in death.|_|
w: Be- fore|thy _ mer-|cy seat.|_|
V:4
 C,4 | C8 B,4 | (E,4 D,2 C,2) D,4 | E,8 F,4 | G,8 G,4 | (E,6 D,2) C,4 | F,8 G,4 | C,8 z4 | %8
w: Let|me es-|cape _ _ the|sin- ners’|doom, Who|make _ a|trade of|ill;|
w: O|Lord, my|rock, _ _ to|thee I|cry, In|sighs _ con-|sume my|breath;|
w: Re-|gard my|sup- * * pli-|ca- tion,|Lord, The|cries _ that|I re-|peat,|
 z4 z4 G,4 | (A,2 G,2 A,2) F,2 G,4 | C4 A,4 G,4 | (C,6 D,2) E,4 | A,4 F,8 | G,8 z4 || %14
w: And|ev- * * er speak|the per- son|fair, speak the|per- son|fair,|
w: O|an- * * swer, or|I shall be-|come, _ I|shall be-|come|
w: With|weep- * * ing eyes|and lif- ted|hands, _ and|lif- ted|hands|
[M:4/4]"^Notes: The alto part is printed in the alto clef in the source. With the exception of the B§ in the tenor part in the penultimatebar, which is marked with a § sign in the source, a # sign is consistently used in the source to indicate naturalisation of notesflattened by the key signature (e.g. where B§ is given in this edition).The text is indicated in the source by the heading ‘Ps. 28th’, and fragments of of the first verse are underlaid. This firstverse has here been given in full and three other verses selected from the text have been added editorially: it is suggestedthat basses drop the slur from bar 11 in the third and fourth verses to accommodate the word-fit." C4 C,4 | %15
w: Whose blood|
w: Like those|
w: Be- fore|
 D,4 G,4 | G,,4 C,4- | C,4 |] %18
w: they mean|to spill.|_|
w: that sleep|in death.|_|
w: thy mer-|cy seat.|_|

